public/svg/love.svg

<svg width="468" height="286" viewBox="0 0 468 286" fill="none" xmlns="http://www.w3.org/2000/svg">
<g clip-path="url(#clip0)">
<path d="M188.717 70.4093C191.362 47.6359 203.854 26.1512 201.698 2.75578C201.431 -0.199204 197.108 -1.14346 195.885 1.71154C190.606 14.1202 186.994 27.3843 182.705 40.1929C181.482 43.87 180.304 47.536 179.237 51.2241C177.908 50.2153 176.663 49.1007 175.514 47.8914C170.658 42.548 166.835 36.2493 162.567 30.4504C155.899 21.3411 149.464 12.8094 143.896 3.02239C143.734 2.79544 143.501 2.62803 143.234 2.54578C142.967 2.46352 142.681 2.47095 142.418 2.56693C131.905 7.97698 146.864 29.8838 150.52 36.0382C154.821 43.1701 164.556 62.6997 175.603 67.932C175.381 69.665 175.181 71.4091 175.081 73.1754C174.347 85.0398 175.181 97.1708 175.57 109.046C175.959 121.122 176.448 132.919 182.382 143.617C183.494 145.695 186.694 144.584 187.106 142.506C191.907 118.867 185.95 94.2269 188.717 70.4093Z" fill="#3A3C51"/>
<path d="M220.048 46.6587C219.347 46.6785 218.667 46.9025 218.092 47.303C206.6 46.4698 197.21 72.2759 195.198 79.7967C191.153 94.9493 195.054 126.232 216.992 124.832C236.451 123.588 241.919 94.0606 242.164 79.2857C242.43 62.9 239.885 45.8477 220.048 46.6587ZM232.084 80.6965C231.239 88.084 224.927 117.434 213.602 109.224C203.6 101.959 207.123 82.9516 209.623 73.0425C210.583 68.7658 211.934 64.5861 213.658 60.556C214.682 58.388 215.843 56.2879 217.136 54.2683C217.858 55.6347 219.914 55.7791 221.104 55.0348C227.272 51.1689 231.917 60.2005 232.517 64.7996C233 70.1052 232.847 75.4495 232.061 80.7187L232.084 80.6965Z" fill="#3A3C51"/>
<path d="M316.312 103.936C315.9 101.236 313.089 98.6923 309.91 100.836C306.198 103.347 301.564 115.1 297.208 111.945C292.851 108.79 293.873 96.4483 293.873 91.5159C293.796 76.0634 291.228 60.1776 293.573 44.8583C293.596 44.6374 293.557 44.4144 293.458 44.2152C293.36 44.016 293.207 43.8486 293.018 43.7324C292.828 43.6163 292.61 43.556 292.388 43.5587C292.165 43.5613 291.949 43.6268 291.762 43.7474C282.927 49.5019 281.76 64.3101 281.126 73.7416C280.737 79.1405 280.315 84.8505 280.215 90.5605C277.603 94.2043 275.181 97.9924 272.436 101.492C270.213 104.302 265.39 112.412 261.478 109.201C259.255 107.357 259.966 100.47 259.855 97.8147C259.455 88.261 259.199 78.6629 259.244 69.0869C259.244 63.1325 260.111 56.4672 258.366 50.6794C257.555 47.9688 253.843 48.2243 252.676 50.435C246.963 61.1551 245.552 75.819 244.896 87.6944C244.352 98.5257 243.263 113.09 251.72 121.577C258.677 128.553 267.89 126.087 274.658 120.199C277.62 117.566 280.144 114.48 282.138 111.057C284.66 120.121 291.362 129.309 302.009 127.409C312.422 125.554 316.456 113.178 316.456 103.869L316.312 103.936Z" fill="#3A3C51"/>
<path d="M136.851 75.252C130.961 73.5079 120.681 71.2528 117.469 78.4847C117.248 78.9908 117.161 79.545 117.215 80.0945C117.269 80.6441 117.463 81.1706 117.778 81.624C118.093 82.0773 118.52 82.4424 119.016 82.6843C119.513 82.9263 120.063 83.0371 120.615 83.0061C125.742 83.0516 130.838 83.7991 135.762 85.2279C139.641 86.4165 144.931 90.3713 149.098 89.7825C149.859 89.7021 150.575 89.3823 151.142 88.8692C151.709 88.3561 152.099 87.6762 152.255 86.9275C152.888 79.7512 142.13 76.8184 136.851 75.252Z" fill="#3A3C51"/>
<path d="M147.008 101.038C138.406 89.4732 108.611 105.048 115.746 117.823C116.242 118.503 116.985 118.962 117.815 119.103C118.645 119.244 119.498 119.056 120.191 118.579C123.959 115.624 126.27 111.513 130.571 108.925C134.205 106.703 139.629 104.559 143.907 105.881C146.586 106.703 148.497 103.048 147.008 101.038Z" fill="#3A3C51"/>
<path d="M146.696 116.455C141.828 114.311 135.883 118.91 132.76 122.309C128.681 126.753 125.225 132.307 125.469 138.462C125.569 141.084 129.159 143.005 131.259 141.15C135.116 137.74 136.605 133.374 139.272 129.13C140.417 127.209 141.738 125.397 143.217 123.72C144.696 122.121 146.496 120.987 147.663 119.121C147.884 118.639 147.906 118.089 147.726 117.59C147.545 117.091 147.175 116.684 146.696 116.455Z" fill="#3A3C51"/>
<path d="M351.474 60.9556C342.961 57.9784 326.602 64.166 323.69 73.3198C323.501 73.9086 323.979 74.6973 324.679 74.4307C328.834 72.585 333.14 71.0983 337.548 69.9871C341.994 68.8762 346.95 68.7318 351.24 67.0766C353.674 66.1101 354.308 61.9554 351.474 60.9556Z" fill="#3A3C51"/>
<path d="M350.486 90.0604C348.908 78.5293 327.981 83.6617 323.813 90.9158C323.313 91.7934 324.402 93.0599 325.347 92.5822C328.225 91.1269 333.338 91.4157 336.46 91.5713C340.095 91.749 343.573 92.6155 347.141 93.0599C347.567 93.1371 348.006 93.1159 348.423 92.9978C348.84 92.8797 349.225 92.6679 349.548 92.3785C349.87 92.0891 350.123 91.7298 350.285 91.3281C350.448 90.9263 350.516 90.4927 350.486 90.0604Z" fill="#3A3C51"/>
<path d="M343.081 100.426C338.069 99.1156 331.046 98.9489 326.356 101.36C326.104 101.459 325.886 101.629 325.729 101.849C325.572 102.07 325.482 102.331 325.47 102.601C325.458 102.871 325.525 103.139 325.663 103.372C325.8 103.606 326.002 103.794 326.245 103.915C331.29 106.547 337.48 106.359 342.715 108.814C345.082 109.925 351.483 114.835 353.028 109.925C354.628 104.892 346.671 101.36 343.081 100.426Z" fill="#3A3C51"/>
<path d="M264.5 222.669C262.966 216.459 257.165 214.137 251.419 216.57C244.529 219.503 239.85 228.279 241.417 235.544C241.573 236.266 242.717 236.244 242.973 235.611C244.54 231.767 245.751 227.756 248.785 224.735C250.619 222.913 255.453 219.447 258.043 222.102C261.01 225.157 258.043 233.855 256.854 237.188C255.409 241.298 253.453 245.22 251.641 249.186C248.241 256.618 244.718 264.061 241.706 271.659C240.517 274.647 238.45 278.658 238.739 282.102C234.404 276.658 228.737 272.281 224.502 266.749C219.679 260.506 215.067 253.851 212.089 246.497C209.277 239.554 206.987 229.701 214.767 225.024C224.28 219.314 230.426 229.256 231.526 237.577C231.554 237.841 231.658 238.092 231.827 238.298C231.995 238.504 232.22 238.656 232.473 238.737C232.727 238.817 232.999 238.821 233.255 238.749C233.511 238.678 233.74 238.533 233.915 238.332C239.828 231.9 231.593 220.325 224.947 217.97C216.656 215.037 206.821 220.758 204.042 228.79C200.397 239.31 206.732 251.619 212.144 260.328C218.134 269.971 227.358 282.246 238.572 285.879C238.829 285.956 239.103 285.962 239.364 285.895C239.624 285.828 239.861 285.692 240.05 285.501C240.139 285.612 240.217 285.723 240.317 285.823C240.428 285.918 240.564 285.982 240.708 286.007C240.853 286.033 241.002 286.019 241.139 285.967C245.196 284.257 245.696 279.147 247.229 275.458C249.73 269.404 252.475 263.45 255.064 257.44C259.51 247.119 267.334 234.4 264.5 222.669Z" fill="#3A3C51"/>
<path d="M467.711 207.605C461.577 195.485 441.828 182.343 428.703 192.053C428.656 192.095 428.612 192.139 428.57 192.186C426.724 191.98 424.863 191.957 423.013 192.119C422.39 192.119 421.735 192.264 421.057 192.386C427.058 184.032 431.648 174.756 436.716 165.724C453.319 158.026 469.801 133.897 466.378 116.023C466.089 114.523 464.866 112.957 463.11 113.246C442.85 116.578 424.847 144.695 431.615 164.713C426.68 172.49 422.446 180.855 417.023 188.153C417.023 187.509 417.023 186.865 417.023 186.231C417.023 185.832 417.023 185.409 417.023 184.987C417.119 184.65 417.119 184.292 417.023 183.954C417.023 183.632 417.023 183.299 416.956 182.977C423.18 175.011 424.035 161.336 423.902 151.749C423.813 145.084 422.724 131.82 415.711 127.865L415.967 127.543C416.079 127.403 416.153 127.236 416.183 127.059C416.212 126.882 416.195 126.701 416.133 126.532C416.072 126.364 415.968 126.214 415.832 126.097C415.696 125.98 415.532 125.9 415.356 125.865C399.641 122.388 407.443 178.489 413.555 185.698C413.698 185.861 413.862 186.003 414.044 186.12C414.1 186.609 414.155 187.087 414.178 187.565C414.244 188.964 414.255 190.353 414.311 191.742L414.044 192.075C404.953 202.323 393.513 210.217 380.704 215.081C381.237 214.193 381.815 213.282 382.282 212.349C392.395 211.238 396.007 199.085 395.54 190.32C394.745 178.781 390.523 167.742 383.415 158.615C383.176 158.288 382.865 158.02 382.507 157.83C382.148 157.641 381.752 157.534 381.347 157.519C380.942 157.504 380.539 157.581 380.168 157.744C379.796 157.907 379.467 158.151 379.203 158.459C368.001 173.401 369.479 191.53 377.67 207.55C377.879 207.971 378.223 208.311 378.648 208.516C378.405 208.759 378.222 209.055 378.113 209.381C378.003 209.706 377.971 210.053 378.019 210.393C378.066 210.733 378.192 211.058 378.386 211.341C378.58 211.624 378.837 211.859 379.137 212.026C378.703 213.404 378.259 214.77 377.814 216.137C372.845 217.919 367.748 219.322 362.567 220.336C353.194 222.224 343.61 222.844 334.072 222.18C337.406 220.236 340.829 217.314 342.229 213.915C348.619 210.738 353.565 206.916 355.421 199.196C357.532 190.364 356.732 179.733 351.364 172.212C351.201 171.991 350.99 171.809 350.747 171.681C350.504 171.553 350.235 171.481 349.96 171.471C349.686 171.462 349.412 171.514 349.161 171.625C348.909 171.736 348.686 171.903 348.508 172.112C339.273 182.432 325.848 201.584 335.005 215.692C335.064 215.777 335.135 215.852 335.216 215.915L335.105 216.059C333.354 217.868 331.728 219.795 330.237 221.825C320.134 220.661 310.304 217.775 301.176 213.293C295.319 210.427 289.518 207.327 283.905 204.017C280.182 201.795 271.269 198.018 269.035 193.952C268.949 193.829 268.832 193.731 268.695 193.667C268.559 193.604 268.408 193.578 268.258 193.591C268.108 193.605 267.964 193.658 267.841 193.744C267.718 193.831 267.62 193.949 267.557 194.085C264.079 202.973 287.228 213.393 292.941 216.514C306.307 223.951 321.223 228.172 336.505 228.845C338.773 230.449 340.893 232.252 342.84 234.233C336.65 236.288 343.307 247.675 345.83 250.641C351.798 257.64 359.344 264.916 367.445 269.426C369.568 270.604 371.891 268.549 371.78 266.405C371.457 256.484 369.713 245.298 362.889 237.699C359.355 233.778 352.198 227.435 347.23 232.589V232.656C346.108 231.317 344.886 230.065 343.574 228.912C347.375 228.822 351.17 228.537 354.943 228.057C365.629 226.733 376.077 223.921 385.983 219.703L389.239 221.136C382.293 225.668 392.64 234.744 397.085 237.099C406.042 241.821 416.789 244.665 426.747 246.353C427.422 246.457 428.112 246.362 428.734 246.079C429.355 245.797 429.881 245.339 430.246 244.763C430.612 244.187 430.802 243.516 430.792 242.834C430.782 242.151 430.574 241.487 430.192 240.921C423.524 231.645 420.868 220.08 408.776 216.481C405.442 215.504 393.862 213.904 391.139 218.092C390.839 217.97 390.561 217.836 390.25 217.725C397.662 214.149 404.543 209.566 410.699 204.106C412.419 202.557 414.055 200.918 415.6 199.196C418.396 197.771 421.458 196.943 424.591 196.763C423.391 205.528 430.57 210.016 438.272 211.882C445.218 213.559 458.276 215.215 464.655 210.971C464.722 210.971 464.766 210.86 464.833 210.804C466.644 211.215 468.778 209.727 467.711 207.605Z" fill="#3A3C51"/>
<path d="M3.23317 210.87C3.29985 210.87 3.3443 210.993 3.41098 211.037C9.75678 215.27 22.8485 213.625 29.7944 211.948C37.496 210.082 44.6865 205.594 43.4751 196.829C46.6082 197.009 49.6698 197.837 52.4659 199.262C54.011 200.984 55.647 202.623 57.367 204.172C63.5191 209.611 70.3928 214.175 77.7935 217.736C77.4935 217.847 77.2045 217.98 76.9045 218.102C74.1928 213.914 62.557 215.514 59.2674 216.492C47.1759 220.08 44.542 231.644 37.8517 240.931C37.47 241.497 37.2616 242.162 37.2519 242.844C37.2423 243.527 37.4318 244.197 37.7974 244.773C38.1629 245.35 38.6886 245.807 39.3101 246.09C39.9316 246.372 40.6221 246.467 41.2969 246.363C51.299 244.675 62.0013 241.831 70.9587 237.11C75.4041 234.755 85.7508 225.679 78.8049 221.146L82.0611 219.713C91.9672 223.932 102.415 226.744 113.101 228.067C116.874 228.547 120.668 228.833 124.47 228.922C123.158 230.076 121.936 231.327 120.814 232.666V232.599C115.846 227.456 108.689 233.788 105.155 237.71C98.2979 245.33 96.542 256.495 96.2642 266.415C96.1975 268.548 98.4869 270.614 100.598 269.437C108.7 264.927 116.246 257.65 122.214 250.652C124.748 247.685 131.405 236.299 125.204 234.244C127.151 232.263 129.271 230.46 131.538 228.856C146.821 228.183 161.737 223.961 175.103 216.525C180.816 213.403 203.998 202.994 200.486 194.096C200.423 193.959 200.326 193.841 200.203 193.755C200.08 193.668 199.936 193.615 199.786 193.602C199.636 193.588 199.485 193.614 199.349 193.678C199.212 193.741 199.095 193.839 199.008 193.963C196.786 198.017 187.895 201.828 184.138 204.027C178.515 207.36 172.725 210.437 166.868 213.303C157.74 217.79 147.911 220.679 137.806 221.846C136.316 219.816 134.69 217.89 132.939 216.08L132.828 215.936C132.909 215.873 132.98 215.798 133.039 215.714C142.196 201.605 128.771 182.454 119.536 172.133C119.361 171.924 119.141 171.756 118.893 171.642C118.644 171.529 118.373 171.473 118.1 171.478C117.827 171.483 117.558 171.55 117.314 171.673C117.07 171.796 116.857 171.973 116.691 172.189C111.323 179.71 110.523 190.352 112.634 199.173C114.479 206.893 119.436 210.715 125.826 213.892C127.226 217.291 130.638 220.202 133.983 222.157C124.452 222.812 114.875 222.184 105.511 220.291C100.329 219.277 95.2323 217.873 90.2629 216.092C89.8183 214.725 89.3738 213.348 88.9404 211.981C89.2404 211.814 89.4975 211.579 89.6915 211.296C89.8855 211.012 90.0111 210.688 90.0585 210.348C90.1059 210.007 90.0737 209.661 89.9646 209.335C89.8554 209.01 89.6722 208.714 89.4294 208.471C89.8536 208.266 90.1977 207.926 90.4074 207.504C98.598 191.485 100.076 173.355 88.8737 158.414C88.6103 158.106 88.2807 157.861 87.9095 157.699C87.5383 157.536 87.1351 157.459 86.7301 157.474C86.325 157.489 85.9286 157.595 85.5704 157.785C85.2123 157.975 84.9016 158.243 84.6617 158.569C77.6135 167.738 73.4616 178.801 72.7369 190.341C72.2701 199.106 75.882 211.248 85.9953 212.37C86.5065 213.292 87.04 214.214 87.5734 215.103C74.7639 210.239 63.3241 202.345 54.233 192.096L53.9662 191.763C54.0218 190.374 54.0329 188.986 54.0996 187.586C54.0996 187.108 54.1774 186.62 54.233 186.142C54.4149 186.025 54.5795 185.883 54.7219 185.72C60.8344 178.521 68.636 122.399 52.9216 125.887C52.7455 125.922 52.5815 126.002 52.4452 126.118C52.309 126.235 52.2052 126.385 52.1437 126.554C52.0823 126.722 52.0654 126.904 52.0945 127.081C52.1237 127.258 52.198 127.424 52.3103 127.564L52.5659 127.887C45.5533 131.841 44.4642 145.072 44.3753 151.771C44.2419 161.358 45.0977 175.033 51.3212 182.998C51.3212 183.331 51.3212 183.653 51.2545 183.976C51.1579 184.313 51.1579 184.671 51.2545 185.009C51.2545 185.431 51.2545 185.853 51.2545 186.253C51.2545 186.897 51.2545 187.53 51.2545 188.175C45.8312 180.876 41.5969 172.489 36.6625 164.735C43.4306 144.739 25.4379 116.655 5.16691 113.267C3.41098 112.978 2.1885 114.545 1.89955 116.044C-1.52341 133.919 14.9579 158.047 31.5614 165.746C36.6292 174.766 41.2079 184.042 47.2203 192.407C46.5424 192.285 45.8867 192.196 45.2644 192.141C43.4145 191.979 41.5531 192.001 39.7076 192.207C39.6691 192.161 39.6283 192.116 39.5854 192.074C26.4492 182.32 6.71169 195.462 0.577042 207.627C-0.789917 209.726 1.35499 211.215 3.23317 210.87Z" fill="#3A3C51"/>
</g>
<defs>
<clipPath id="clip0">
<rect width="468" height="286" fill="white"/>
</clipPath>
</defs>
</svg>

<svg xmlns="http://www.w3.org/2000/svg" width="468" height="286" fill="none" xmlns:v="https://vecta.io/nano"><g clip-path="url(#A)" fill="#3a3c51"><path d="M188.717 70.4c2.645-22.773 15.137-44.258 12.98-67.654-.267-2.955-4.6-3.9-5.813-1.044-5.28 12.4-8.9 25.673-13.18 38.48-1.223 3.677-2.4 7.343-3.468 11.03a30.94 30.94 0 0 1-3.723-3.333c-4.856-5.343-8.68-11.642-12.947-17.44-6.668-9.1-13.103-17.64-18.67-27.428a1.28 1.28 0 0 0-1.478-.456c-10.513 5.4 4.446 27.317 8.102 33.47 4.3 7.132 14.036 26.66 25.083 31.894-.222 1.733-.422 3.477-.522 5.243-.734 11.864.1 23.995.5 35.87.4 12.076.878 23.873 6.812 34.57 1.112 2.078 4.312.967 4.724-1.1 4.8-23.64-1.156-48.28 1.6-72.097zm31.33-23.75a3.6 3.6 0 0 0-1.956.644C206.6 46.47 197.2 72.276 195.198 79.797c-4.045 15.153-.144 46.435 21.794 45.035 19.46-1.244 24.927-30.77 25.172-45.546.266-16.386-2.28-33.438-22.116-32.627zm12.036 34.038c-.845 7.388-7.157 36.738-18.482 28.528-10.002-7.265-6.48-26.272-3.98-36.18.96-4.277 2.3-8.456 4.035-12.487a56.08 56.08 0 0 1 3.478-6.288c.722 1.366 2.778 1.5 3.968.766 6.168-3.866 10.813 5.166 11.413 9.765a66.83 66.83 0 0 1-.456 15.919l.023-.022zm84.228 23.238c-.412-2.7-3.223-5.244-6.402-3.1-3.712 2.5-8.346 14.264-12.702 11.1s-3.335-15.497-3.335-20.43c-.077-15.452-2.645-31.338-.3-46.658a1.17 1.17 0 0 0-.115-.643 1.18 1.18 0 0 0-1.696-.468c-8.835 5.755-10.002 20.563-10.636 29.994-.4 5.4-.8 11.1-.9 16.82-2.612 3.644-5.034 7.432-7.78 10.932-2.223 2.8-7.046 10.92-10.958 7.7-2.223-1.844-1.512-8.73-1.623-11.386-.4-9.554-.656-19.152-.6-28.728 0-5.954.867-12.62-.878-18.407-.8-2.7-4.523-2.455-5.7-.244-5.713 10.72-7.124 25.384-7.78 37.26-.544 10.83-1.633 25.396 6.824 33.883 6.957 6.976 16.17 4.5 22.938-1.378a37.46 37.46 0 0 0 7.48-9.142c2.522 9.064 9.224 18.252 19.87 16.352 10.413-1.855 14.447-14.23 14.447-23.54l-.144.067zM136.85 75.252c-5.9-1.744-16.17-4-19.382 3.233a3.23 3.23 0 0 0-.254 1.61 3.24 3.24 0 0 0 .563 1.53 3.23 3.23 0 0 0 1.238 1.06c.496.242 1.047.353 1.6.322a56.14 56.14 0 0 1 15.147 2.222c3.88 1.2 9.17 5.143 13.336 4.555a3.61 3.61 0 0 0 2.044-.913c.567-.513.957-1.193 1.113-1.942.633-7.176-10.125-10.1-15.404-11.675zm10.158 25.786c-8.602-11.565-38.397 4-31.262 16.785a3.23 3.23 0 0 0 2.069 1.28 3.24 3.24 0 0 0 2.376-.524c3.768-2.955 6.08-7.066 10.38-9.654 3.634-2.222 9.058-4.366 13.336-3.044 2.68.822 4.6-2.833 3.1-4.843zm-.312 15.417c-4.868-2.144-10.813 2.455-13.936 5.854-4.08 4.444-7.535 9.998-7.3 16.153.1 2.622 3.7 4.543 5.8 2.688 3.857-3.4 5.346-7.776 8.013-12.02 1.145-1.92 2.466-3.733 3.945-5.4 1.48-1.6 3.28-2.733 4.446-4.6a2.03 2.03 0 0 0 .063-1.53 2.02 2.02 0 0 0-1.03-1.135zm204.778-55.5c-8.513-2.977-24.872 3.2-27.784 12.364-.2.6.3 1.377 1 1.1a79.68 79.68 0 0 1 12.869-4.444c4.446-1.1 9.402-1.255 13.692-2.9 2.434-.966 3.068-5.12.234-6.12zm-.988 29.104c-1.578-11.53-22.505-6.4-26.673.855-.5.878.6 2.144 1.534 1.666 2.878-1.455 8-1.166 11.113-1 3.635.178 7.113 1.044 10.68 1.5a2.85 2.85 0 0 0 2.407-.681 2.86 2.86 0 0 0 .737-1.05c.162-.4.23-.835.2-1.268zm-7.406 10.366c-5.012-1.3-12.035-1.477-16.725.934a1.4 1.4 0 0 0-.627.489c-.157.22-.247.482-.26.752a1.39 1.39 0 0 0 .775 1.314c5.045 2.632 11.235 2.444 16.47 4.9 2.367 1.1 8.768 6.02 10.313 1.1 1.6-5.033-6.357-8.565-9.947-9.5zM264.5 222.67c-1.534-6.2-7.335-8.532-13.08-6.1-6.9 2.933-11.57 11.7-10.002 18.974.156.722 1.3.7 1.556.067 1.567-3.844 2.778-7.855 5.812-10.876 1.834-1.822 6.668-5.288 9.258-2.633 2.967 3.055 0 11.753-1.2 15.086-1.445 4.1-3.4 8.032-5.213 11.998-3.4 7.432-6.923 14.875-9.935 22.473-1.2 2.988-3.256 7-2.967 10.443-4.335-5.444-10.002-9.82-14.237-15.353-4.823-6.243-9.435-12.898-12.413-20.252-2.812-6.943-5.102-16.796 2.678-21.473 9.513-5.7 15.66 4.232 16.76 12.553.028.264.132.515.3.72a1.39 1.39 0 0 0 .646.44 1.37 1.37 0 0 0 .782.012 1.35 1.35 0 0 0 .66-.417c5.913-6.432-2.322-18.007-8.968-20.362-8.3-2.933-18.126 2.788-20.905 10.82-3.645 10.52 2.7 22.83 8.102 31.538 6 9.643 15.214 21.918 26.428 25.55a1.48 1.48 0 0 0 .792.016c.26-.067.497-.203.686-.394.1.1.167.222.267.322a.82.82 0 0 0 .391.184.81.81 0 0 0 .431-.04c4.057-1.7 4.557-6.82 6.1-10.5 2.5-6.054 5.246-12.008 7.835-18.018 4.446-10.32 12.27-23.04 9.436-34.77zm203.2-15.065c-6.134-12.12-25.883-25.262-39.008-15.552a1.67 1.67 0 0 0-.133.133c-1.846-.206-3.707-.23-5.557-.067-.623 0-1.278.145-1.956.267 6-8.354 10.6-17.63 15.66-26.662 16.603-7.698 33.085-31.827 29.662-49.7-.3-1.5-1.512-3.066-3.268-2.777-20.26 3.332-38.263 31.45-31.495 51.467-4.935 7.777-9.17 16.142-14.592 23.44v-3.166a1.89 1.89 0 0 0 0-1.033c0-.322 0-.655-.067-.977 6.224-7.966 7.08-21.64 6.946-31.228-.1-6.665-1.178-19.93-8.2-23.884l.256-.322a1.06 1.06 0 0 0 .216-.484 1.04 1.04 0 0 0-.05-.527c-.06-.168-.165-.318-.3-.435a1.04 1.04 0 0 0-.476-.232c-15.715-3.477-7.913 52.624-1.8 59.833a2.3 2.3 0 0 0 .49.422 22.83 22.83 0 0 1 .134 1.445l.133 4.177-.267.333a84.82 84.82 0 0 1-33.34 23.006c.533-.888 1.1-1.8 1.578-2.732 10.113-1.1 13.725-13.264 13.258-22.03a58.1 58.1 0 0 0-12.125-31.705 2.68 2.68 0 0 0-2.068-1.095c-.405-.014-.808.062-1.18.225a2.7 2.7 0 0 0-.965.715c-11.206 14.94-9.726 33.07-1.536 49.1a2.12 2.12 0 0 0 .978.966c-.243.243-.426.54-.535.865a2.2 2.2 0 0 0-.094 1.012c.047.34.173.665.367.948a2.22 2.22 0 0 0 .751.685l-1.323 4.1c-4.97 1.782-10.066 3.185-15.247 4.2a106.76 106.76 0 0 1-28.495 1.844c3.334-1.944 6.757-4.866 8.157-8.265 6.4-3.177 11.336-7 13.192-14.72 2.1-8.832 1.3-19.463-4.057-26.984a1.82 1.82 0 0 0-.617-.53 1.83 1.83 0 0 0-1.586-.056c-.252.1-.475.278-.653.487-9.235 10.32-22.66 29.472-13.503 43.58a1.06 1.06 0 0 0 .21.223l-.1.144a55.69 55.69 0 0 0-4.868 5.766 89.07 89.07 0 0 1-29.061-8.532c-5.857-2.866-11.658-5.966-17.27-9.276-3.723-2.222-12.636-6-14.87-10.065-.086-.123-.203-.22-.34-.285s-.287-.1-.437-.076a.87.87 0 0 0-.417.153.86.86 0 0 0-.284.341c-3.478 8.888 19.67 19.308 25.384 22.43a98.5 98.5 0 0 0 43.564 12.33c2.268 1.604 4.388 3.407 6.335 5.388-6.2 2.055.467 13.442 3 16.408 5.968 7 13.514 14.275 21.615 18.785 2.123 1.178 4.446-.877 4.335-3.02-.323-9.92-2.067-21.107-8.9-28.706-3.534-3.92-10.7-10.264-15.66-5.1v.067a34.38 34.38 0 0 0-3.656-3.744 113.85 113.85 0 0 0 11.37-.855c10.686-1.324 21.134-4.136 31.04-8.354l3.256 1.433c-6.946 4.532 3.4 13.608 7.846 15.963 8.957 4.722 19.704 7.566 29.662 9.254a3.5 3.5 0 0 0 1.987-.274 3.51 3.51 0 0 0 1.512-1.316c.366-.576.556-1.247.546-1.93a3.51 3.51 0 0 0-.6-1.913c-6.668-9.276-9.324-20.84-21.416-24.44-3.334-.977-14.914-2.577-17.637 1.6-.3-.122-.578-.256-.9-.367a89.29 89.29 0 0 0 20.449-13.619 65.24 65.24 0 0 0 4.901-4.91c2.796-1.425 5.858-2.253 9-2.433-1.2 8.765 5.98 13.253 13.68 15.12 6.946 1.677 20.004 3.333 26.383-.9.067 0 .1-.1.178-.167 1.8.4 3.945-1.077 2.878-3.2zM3.233 210.87c.067 0 .1.123.178.167 6.346 4.233 19.438 2.588 26.383.9 7.702-1.866 14.892-6.354 13.68-15.12a22.66 22.66 0 0 1 8.991 2.433 65.26 65.26 0 0 0 4.901 4.91 89.29 89.29 0 0 0 20.426 13.564c-.3.1-.6.244-.9.366-2.712-4.188-14.347-2.588-17.637-1.6-12.092 3.588-14.725 15.152-21.416 24.44a3.51 3.51 0 0 0-.6 1.913c-.01.683.18 1.353.546 1.93a3.51 3.51 0 0 0 1.513 1.317c.623.283 1.312.377 1.987.273C51.3 244.675 62 241.83 70.96 237.1c4.445-2.355 14.792-11.43 7.846-15.964l3.256-1.433a115.4 115.4 0 0 0 31.04 8.354c3.773.48 7.567.766 11.37.855a34.47 34.47 0 0 0-3.656 3.744v-.067c-4.968-5.143-12.125 1.2-15.66 5.1-6.857 7.62-8.613 18.785-8.9 28.705-.067 2.133 2.223 4.2 4.334 3.022 8.102-4.5 15.648-11.787 21.616-18.785 2.534-2.967 9.2-14.353 3-16.408 1.947-1.98 4.067-3.784 6.334-5.388 15.283-.673 30.2-4.895 43.565-12.33 5.713-3.122 28.895-13.53 25.383-22.43-.063-.137-.16-.255-.283-.34a.85.85 0 0 0-.417-.153.84.84 0 0 0-.437.076.85.85 0 0 0-.341.285c-2.222 4.054-11.113 7.865-14.87 10.064-5.623 3.333-11.413 6.4-17.27 9.276a89.03 89.03 0 0 1-29.062 8.543 55.66 55.66 0 0 0-4.867-5.766l-.1-.144a1.03 1.03 0 0 0 .21-.222c9.157-14.1-4.268-33.26-13.503-43.58-.175-.2-.395-.377-.643-.5a1.84 1.84 0 0 0-.793-.164 1.82 1.82 0 0 0-1.409.711c-5.368 7.52-6.168 18.163-4.057 26.984 1.845 7.72 6.802 11.542 13.192 14.72 1.4 3.4 4.812 6.3 8.157 8.265a106.76 106.76 0 0 1-28.472-1.866c-5.182-1.014-10.28-2.418-15.248-4.2l-1.323-4.1a2.22 2.22 0 0 0 1.118-1.633 2.23 2.23 0 0 0-.094-1.013 2.22 2.22 0 0 0-.535-.864c.424-.205.768-.545.978-.967 8.2-16.02 9.67-34.15-1.534-49.1a2.68 2.68 0 0 0-.964-.715c-.37-.163-.774-.24-1.18-.225a2.69 2.69 0 0 0-1.16.31 2.7 2.7 0 0 0-.909.784 58.11 58.11 0 0 0-11.925 31.772c-.467 8.765 3.145 20.907 13.258 22.03a92.93 92.93 0 0 0 1.578 2.733 84.81 84.81 0 0 1-33.34-23.007l-.267-.333.133-4.177c0-.478.078-.966.133-1.444a2.35 2.35 0 0 0 .49-.422c6.113-7.2 13.914-63.32-1.8-59.833a1.05 1.05 0 0 0-.476.231 1.03 1.03 0 0 0-.3.436c-.06.17-.078.35-.05.527s.104.343.216.483l.256.323c-7.013 3.954-8.102 17.185-8.2 23.884-.133 9.587.722 23.262 6.946 31.227 0 .333 0 .655-.067.978a1.87 1.87 0 0 0 0 1.033v3.166c-5.423-7.3-9.658-15.686-14.592-23.44 6.768-19.996-11.225-48.08-31.496-51.468-1.756-.3-2.978 1.278-3.267 2.777-3.423 17.875 13.058 42.003 29.662 49.702 5.068 9.02 9.647 18.296 15.66 26.66a22.05 22.05 0 0 0-1.956-.266 28.04 28.04 0 0 0-5.557.066 1.83 1.83 0 0 0-.122-.133c-13.15-9.736-32.887 3.406-39.022 15.57-1.367 2.1.778 3.588 2.656 3.243z"/></g><defs><clipPath id="A"><path fill="#fff" d="M0 0h468v286H0z"/></clipPath></defs></svg>
